packages/ui-solid/icons/chat_colored_square_32.svg

<svg width="32" height="32" viewBox="0 0 32 32" fill="none" xmlns="http://www.w3.org/2000/svg">
<path d="M1 10.6C1 7.23968 1 5.55953 1.65396 4.27606C2.2292 3.14708 3.14708 2.2292 4.27606 1.65396C5.55953 1 7.23969 1 10.6 1H21.4C24.7603 1 26.4405 1 27.7239 1.65396C28.8529 2.2292 29.7708 3.14708 30.346 4.27606C31 5.55953 31 7.23969 31 10.6V21.4C31 24.7603 31 26.4405 30.346 27.7239C29.7708 28.8529 28.8529 29.7708 27.7239 30.346C26.4405 31 24.7603 31 21.4 31H10.6C7.23968 31 5.55953 31 4.27606 30.346C3.14708 29.7708 2.2292 28.8529 1.65396 27.7239C1 26.4405 1 24.7603 1 21.4V10.6Z" fill="#FE9500"/>
<path d="M16 25C21.5228 25 26 20.7467 26 15.5C26 10.2533 21.5228 6 16 6C10.4772 6 6 10.2533 6 15.5C6 18.3562 7.32679 20.918 9.42679 22.6595C9.77881 22.9514 9.92212 23.4338 9.63185 23.7872C9.47247 23.9812 9.28396 24.1824 9.08165 24.3984C8.92374 24.567 8.75742 24.7446 8.58997 24.9347C8.05626 25.5406 8.59329 26.3317 9.38163 26.1569C10.9386 25.8116 12.2584 25.3586 13.3464 24.8789C13.5492 24.7894 13.7747 24.7663 13.9923 24.8085C14.6409 24.9341 15.3123 25 16 25Z" fill="white"/>
<path d="M12.5 15.5C12.5 16.3284 11.8284 17 11 17C10.1716 17 9.5 16.3284 9.5 15.5C9.5 14.6716 10.1716 14 11 14C11.8284 14 12.5 14.6716 12.5 15.5Z" fill="#FE9500"/>
<path d="M17.5 15.5C17.5 16.3284 16.8284 17 16 17C15.1716 17 14.5 16.3284 14.5 15.5C14.5 14.6716 15.1716 14 16 14C16.8284 14 17.5 14.6716 17.5 15.5Z" fill="#FE9500"/>
<path d="M22.5 15.5C22.5 16.3284 21.8284 17 21 17C20.1716 17 19.5 16.3284 19.5 15.5C19.5 14.6716 20.1716 14 21 14C21.8284 14 22.5 14.6716 22.5 15.5Z" fill="#FE9500"/>
</svg>

<svg xmlns="http://www.w3.org/2000/svg" width="32" height="32" fill="none"><path fill="#FE9500" d="M1 10.6c0-3.36 0-5.04.654-6.324a6 6 0 0 1 2.622-2.622C5.56 1 7.24 1 10.6 1h10.8c3.36 0 5.04 0 6.324.654a6 6 0 0 1 2.622 2.622C31 5.56 31 7.24 31 10.6v10.8c0 3.36 0 5.04-.654 6.324a6 6 0 0 1-2.622 2.622C26.44 31 24.76 31 21.4 31H10.6c-3.36 0-5.04 0-6.324-.654a6 6 0 0 1-2.622-2.622C1 26.44 1 24.76 1 21.4z"/><path fill="#fff" d="M16 25c5.523 0 10-4.253 10-9.5S21.523 6 16 6 6 10.253 6 15.5c0 2.856 1.327 5.418 3.427 7.16.352.291.495.774.205 1.127-.16.194-.348.395-.55.611-.158.169-.325.347-.492.537-.534.606.003 1.397.792 1.222a21 21 0 0 0 3.964-1.278c.203-.09.429-.113.646-.07q.975.19 2.008.191"/><path fill="#FE9500" d="M12.5 15.5a1.5 1.5 0 1 1-3 0 1.5 1.5 0 0 1 3 0m5 0a1.5 1.5 0 1 1-3 0 1.5 1.5 0 0 1 3 0m5 0a1.5 1.5 0 1 1-3 0 1.5 1.5 0 0 1 3 0"/></svg>
